svgs/regular/cassette-vhs.svg

<svg xmlns="http://www.w3.org/2000/svg" viewBox="0 0 576 512"><!--! Font Awesome Pro 6.2.0 by @fontawesome - https://fontawesome.com License - https://fontawesome.com/license (Commercial License) Copyright 2022 Fonticons, Inc. --><path d="M184 384h208C440.6 384 480 344.6 480 296S440.6 208 392 208h-208C135.4 208 96 247.4 96 296S135.4 384 184 384zM400 264c17.62 0 32 14.38 32 32s-14.38 32-32 32V264zM224 256h128v80H224V256zM176 264v64c-17.62 0-32-14.38-32-32S158.4 264 176 264zM512 32H64C28.65 32 0 60.65 0 96v320c0 35.35 28.65 64 64 64h448c35.35 0 64-28.65 64-64V96C576 60.65 547.3 32 512 32zM528 416c0 8.822-7.178 16-16 16H64c-8.822 0-16-7.178-16-16V160h480V416z"/></svg>

<svg xmlns="http://www.w3.org/2000/svg" viewBox="0 0 576 512"><!--! Font Awesome Pro 6.3.0 by @fontawesome - https://fontawesome.com License - https://fontawesome.com/license (Commercial License) Copyright 2023 Fonticons, Inc. --><path d="M48 416V160H528V416c0 8.8-7.2 16-16 16H64c-8.8 0-16-7.2-16-16zM64 32C28.7 32 0 60.7 0 96V416c0 35.3 28.7 64 64 64H512c35.3 0 64-28.7 64-64V96c0-35.3-28.7-64-64-64H64zM352 336H224V256H352v80zM144 296c0-19.4 13.7-35.5 32-39.2v78.4c-18.3-3.7-32-19.8-32-39.2zm288 0c0 19.4-13.7 35.5-32 39.2V256.8c18.3 3.7 32 19.8 32 39.2zM96 296c0 48.6 39.4 88 88 88H392c48.6 0 88-39.4 88-88s-39.4-88-88-88H184c-48.6 0-88 39.4-88 88z"/></svg>
